X:5113
T:I Wrestled The Devil In Myles' Gap
M:4/4
R:Reel
L:1/8
Q:180
C:Aidan Crossey
K:D
A2|dAFA BAFA|EAFA GAFA|dAFA BAFA|dABc dAFA|
dAFA BAFA|EAFA GAF2|G3B A3d|cABc d2 de||
fd (3ddd fded|cAAA cAAA|fd (3ddd fded|cABc d2de|
fd (3ddd fded|cAAA cAAA|B3d c3g|fedc d2||
